X: 39221
T: Tá Mé ‘Mo Shui
R: waltz
M: 3/4
K: Eminor
B4c>B|A>dd3B/A/|G4A>G|FEE2E>E|E6|z6|
E4E2|de/d/ ^c3d|e4B>^c|d>BB2A^G|A6|z4G>F|
E>EE4|de/d/^c3d|e4B>^c|dBB2A^G|A6|z4G>A|
B>BB2c>B|A>dd3B/A/|G4A>G|F>EE3E|E6|z6|

